app/img/offer-egg-4.svg

<svg width="26" height="26" viewBox="0 0 26 26" fill="none" xmlns="http://www.w3.org/2000/svg">
<g clip-path="url(#clip0)">
<path fill-rule="evenodd" clip-rule="evenodd" d="M15.518 5.45217C15.4075 5.309 15.2183 5.25196 15.0476 5.31029C14.8766 5.36855 14.7614 5.52927 14.7614 5.70997V19.2738C14.7614 20.001 15.2963 20.6816 16.2897 21.1916C17.2767 21.6984 18.6732 22.0099 20.2805 22.0099C21.8878 22.0099 23.2843 21.6984 24.2713 21.1916C25.2646 20.6817 25.7995 20.001 25.7996 19.2738C25.7995 18.8209 25.5843 18.3809 25.19 17.9946L15.518 5.45217ZM22.7641 16.8143L23.3159 16.9472L15.6058 6.94886V17.7683L15.9135 17.5718C16.9023 16.9404 18.4534 16.5376 20.2805 16.5376C21.1859 16.5376 22.0259 16.6366 22.7641 16.8143ZM24.9552 19.2738C24.9551 19.5286 24.7981 19.7701 24.576 19.9758C24.3485 20.1866 24.0239 20.3876 23.6216 20.5618C22.8156 20.911 21.6692 21.1655 20.2805 21.1655C18.8917 21.1655 17.7454 20.9111 16.9393 20.5618C16.537 20.3876 16.2125 20.1866 15.985 19.9758C15.7629 19.7701 15.6058 19.5286 15.6058 19.2738C15.6058 19.0189 15.7629 18.7774 15.985 18.5717C16.2125 18.3609 16.5371 18.1599 16.9394 17.9856C17.7454 17.6364 18.8918 17.3819 20.2805 17.3819C21.6692 17.3819 22.8156 17.6364 23.6216 17.9856C24.0239 18.1599 24.3485 18.3608 24.576 18.5716C24.7981 18.7774 24.9552 19.0189 24.9552 19.2738Z" fill="#00F0FF"/>
<path d="M13.3546 21.3354L13.3545 21.3372C13.3541 21.3491 13.3538 21.361 13.3526 21.3727C13.3538 21.3605 13.3542 21.3479 13.3546 21.3354Z" fill="#00F0FF"/>
<path fill-rule="evenodd" clip-rule="evenodd" d="M0.704512 20.1507L0.717249 20.137L12.1885 1.99591C12.2887 1.83771 12.4811 1.76429 12.6608 1.81542C12.8409 1.86667 12.9658 2.0303 12.9676 2.21737L13.1557 21.3011L13.1556 21.3083L13.1556 21.3099L13.1552 21.3163C13.155 21.3196 13.1548 21.3239 13.1547 21.329C13.1542 21.3434 13.1537 21.3487 13.1532 21.3533L13.1528 21.3653C13.1238 22.1481 12.4585 22.9012 11.1192 23.447C9.93243 23.9307 8.35521 24.2011 6.67762 24.2011C5.00011 24.2011 3.42287 23.9307 2.23611 23.447C0.865515 22.8885 0.199463 22.1141 0.199463 21.3111C0.199463 20.9061 0.365636 20.5143 0.704512 20.1507ZM11.9862 19.6142L12.2966 19.8101L12.1374 3.65691L2.36909 19.1047L2.88772 18.9436C3.97455 18.606 5.29232 18.4211 6.67762 18.4211C8.35521 18.4211 9.93245 18.6915 11.1192 19.1752C11.4467 19.3086 11.7356 19.4561 11.9862 19.6142ZM1.32002 20.7234L1.30786 20.7334L1.29741 20.7451C1.14807 20.9135 1.04386 21.1063 1.04386 21.3111C1.04386 21.5904 1.23453 21.851 1.49849 22.0707C1.77061 22.2971 2.15987 22.5139 2.64433 22.7025C3.61502 23.0803 4.99868 23.3567 6.67762 23.3567C8.35614 23.3567 9.73949 23.0804 10.7101 22.7028C11.1946 22.5143 11.5839 22.2976 11.8561 22.0712C12.1202 21.8516 12.3109 21.5909 12.3114 21.3117V21.3098C12.3108 21.0306 12.12 20.7703 11.8559 20.5507C11.5836 20.3243 11.1943 20.1077 10.7099 19.9192C9.73928 19.5416 8.35601 19.2654 6.67762 19.2654C5.36885 19.2654 4.24044 19.4333 3.34744 19.6858C2.45976 19.9368 1.78761 20.2762 1.40744 20.6319L1.39557 20.643L1.38565 20.6559C1.36643 20.6809 1.34444 20.7033 1.32002 20.7234Z" fill="#00F0FF"/>
</g>
<defs>
<clipPath id="clip0">
<rect width="26" height="26" fill="white" transform="translate(-0.000488281)"/>
</clipPath>
</defs>
</svg>

<svg width="26" height="26" fill="none" xmlns="http://www.w3.org/2000/svg"><g clip-path="url(#clip0)" fill="#00F0FF"><path fill-rule="evenodd" clip-rule="evenodd" d="M15.518 5.452a.422.422 0 00-.757.258v13.564c0 .727.535 1.408 1.529 1.918.987.506 2.383.818 3.99.818 1.608 0 3.004-.312 3.991-.818.994-.51 1.528-1.191 1.529-1.918 0-.453-.216-.893-.61-1.28L15.518 5.453zm7.246 11.362l.552.133-7.71-9.998v10.82l.308-.197c.988-.632 2.54-1.034 4.367-1.034.905 0 1.745.099 2.483.276zm2.191 2.46c0 .255-.157.496-.379.702-.227.21-.552.412-.954.586-.806.349-1.953.604-3.341.604-1.39 0-2.536-.255-3.342-.604-.402-.174-.727-.375-.954-.586-.222-.206-.38-.447-.38-.702 0-.255.158-.497.38-.702.227-.211.552-.412.954-.586.806-.35 1.953-.604 3.341-.604 1.39 0 2.536.254 3.342.604.402.174.727.375.954.586.222.205.38.447.38.702z"/><path d="M13.355 21.335v.002l-.002.036.002-.038z"/><path fill-rule="evenodd" clip-rule="evenodd" d="M.705 20.15l.012-.013L12.188 1.996a.423.423 0 01.78.221l.188 19.084v.015l-.001.013c0 .014-.001.02-.002.024v.012c-.03.783-.694 1.536-2.034 2.082-1.187.484-2.764.754-4.441.754-1.678 0-3.255-.27-4.442-.754C.866 22.889.2 22.114.2 21.311c0-.405.167-.797.506-1.16zm11.281-.536l.31.196-.159-16.153L2.37 19.105l.519-.161c1.087-.338 2.404-.523 3.79-.523 1.677 0 3.254.27 4.441.754.328.134.617.281.867.44zM1.32 20.724l-.012.01-.01.011c-.15.168-.254.361-.254.566 0 .28.19.54.454.76.273.226.662.443 1.146.631.971.378 2.355.655 4.034.655 1.678 0 3.061-.277 4.032-.654.485-.189.874-.405 1.146-.632.264-.22.455-.48.455-.76v-.001c0-.28-.191-.54-.455-.76-.272-.226-.662-.442-1.146-.63-.97-.378-2.354-.655-4.032-.655-1.31 0-2.438.168-3.33.42-.888.252-1.56.591-1.94.947l-.012.011-.01.013a.415.415 0 01-.066.067z"/></g><defs><clipPath id="clip0"><path fill="#fff" d="M0 0h26v26H0z"/></clipPath></defs></svg>
